X: 200
T: VARIOUS: St. Patrick's [An Dro]
T: An Dro de la Saint-Patrick
C: C: Trad.; S: Various
C: Set Leaders: Vova, Andrey
Z: Anton Zille ed., Oleg Naumov arr.; Sergei Ejov at The Session
N: https://thesession.org/members/26966/sets/96722
R: An Dro
M: 4/4
L: 1/8
Q: 1/2=100
K: Emin
|:EFGF E2 B2|G2 E2 F2 B2|ABAG F2 EF|G2 EG F4|
EFGF E2 B2|G2 E2 F2 B2|ABAG F2 EF|GEFD E4:||
|:EFGA B2 BB|A2 d2 B2 G2|EFGB A3B|ABAG F2 ED|
EFGA B2 BB|A2 d2 B2 G2|EFGB A3F|GEFD E4:||

